Delta/apps/scalable/outlook.svg

<svg width="192" height="192" version="1.1" viewBox="0 0 192 192" xmlns="http://www.w3.org/2000/svg">
 <path d="m50 100.65c0-1.6585 0.8225-3.2092 2.1958-4.1394l57-38.613c1.693-1.1473 3.915-1.1473 5.608-1e-4l57 38.613c1.373 0.9303 2.196 2.481 2.196 4.1395v65.348c0 2.761-2.239 5-5 5h-114c-2.7614 0-5-2.239-5-5v-65.348z" fill="#54688C"/>
 <rect x="59" y="28" width="109" height="112" rx="5" fill="#54688C"/>
 <g fill="#9ABEFF">
  <path d="m93 47h75v64h-75v-64z" opacity=".5"/>
  <path d="M59 47H168V140H59V47Z" opacity=".25"/>
  <path d="m131 81h37v59h-37v-59z" opacity=".5"/>
  <path d="M93 47H131V81H93V47Z" opacity=".25"/>
  <path d="m131 47h37v34h-37v-34z"/>
  <path d="m50 97v2.0395c0 1.8255 0.9951 3.5065 2.5958 4.3845l57 31.258c1.497 0.821 3.311 0.821 4.808 0l57-31.258c1.601-0.878 2.596-2.559 2.596-4.3845v-2.0395 69c0 2.761-2.239 5-5 5h-114c-2.7614 0-5-2.239-5-5v-69z"/>
 </g>
 <path d="m53 101v1.819c0 1.803 0.9705 3.466 2.5401 4.353l51.418 29.057c1.346 0.76 1.357 2.695 0.02 3.471l-47.972 27.817c-2.6666 1.546-6.0065-0.378-6.0065-3.46v-63.057z" fill="#809ED4"/>
 <rect x="11" y="58" width="82" height="82" rx="5" fill="#9ABEFF"/>
 <path d="m52.36 123.64c13.6 0 24.64-11.04 24.64-24.64s-11.04-24.64-24.64-24.64c-13.68 0-24.64 11.04-24.64 24.64s10.96 24.64 24.64 24.64zm0-12c-7.28 0-12.72-5.36-12.72-12.64s5.44-12.64 12.72-12.64c7.2 0 12.64 5.36 12.64 12.64s-5.44 12.64-12.64 12.64z" fill="#fff"/>
</svg>

<svg width="192" height="192" viewBox="0 0 192 192" fill="none" xmlns="http://www.w3.org/2000/svg">
<path d="M50 100.652C50 98.9935 50.8225 97.4428 52.1958 96.5126L109.196 57.8997C110.889 56.7524 113.111 56.7524 114.804 57.8996L171.804 96.5125C173.177 97.4428 174 98.9935 174 100.652V166C174 168.761 171.761 171 169 171H55C52.2386 171 50 168.761 50 166V100.652Z" fill="#54688C"/>
<rect x="59" y="28" width="109" height="112" rx="5" fill="#54688C"/>
<path opacity="0.5" d="M93 47H168V111H93V47Z" fill="#9ABEFF"/>
<path opacity="0.25" d="M59 47H168V140H59V47Z" fill="#9ABEFF"/>
<path opacity="0.5" d="M131 81H168V140H131V81Z" fill="#9ABEFF"/>
<path opacity="0.25" d="M93 47H131V81H93V47Z" fill="#9ABEFF"/>
<path d="M131 47H168V81H131V47Z" fill="#9ABEFF"/>
<path d="M50 97V99.0395C50 100.865 50.9951 102.546 52.5958 103.424L109.596 134.682C111.093 135.503 112.907 135.503 114.404 134.682L171.404 103.424C173.005 102.546 174 100.865 174 99.0395V97V166C174 168.761 171.761 171 169 171H55C52.2386 171 50 168.761 50 166V97Z" fill="#9ABEFF"/>
<path d="M53 101V102.819C53 104.622 53.9705 106.285 55.5401 107.172L106.958 136.229C108.304 136.989 108.315 138.924 106.978 139.7L59.0065 167.517C56.3399 169.063 53 167.139 53 164.057V101Z" fill="#809ED4"/>
<rect x="11" y="58" width="82" height="82" rx="5" fill="#9ABEFF"/>
<path d="M52.36 123.64C65.96 123.64 77 112.6 77 99C77 85.4 65.96 74.36 52.36 74.36C38.68 74.36 27.72 85.4 27.72 99C27.72 112.6 38.68 123.64 52.36 123.64ZM52.36 111.64C45.08 111.64 39.64 106.28 39.64 99C39.64 91.72 45.08 86.36 52.36 86.36C59.56 86.36 65 91.72 65 99C65 106.28 59.56 111.64 52.36 111.64Z" fill="white"/>
</svg>
